X: 11345
T: Earl Marischal
R: reel
M: 4/4
K: Fmajor
A|:F2FA cAAB|A/B/c FA cAAf|F2FA cAAc|dfcA GGGA:|
|:f/g/a fcd2df|cfAf cfAf|f/g/a fcd2df|1 cAfd cAGg:|2 cAfd cAG||

